components/ui-node-icon/src/unpivot/unpivot.small.svg

<svg width="16" height="16" viewBox="0 0 16 16" fill="none" xmlns="http://www.w3.org/2000/svg">
  <path fill-rule="evenodd" clip-rule="evenodd" d="M7 3L13 3V6H7V3ZM6 3L3 3V6H6L6 3ZM6 7H3L3 13H6L6 7ZM2 6V3C2 2.96548 2.00175 2.93137 2.00516 2.89776C2.01976 2.75398 2.06482 2.61921 2.13378 2.5C2.22607 2.34047 2.36115 2.2088 2.52334 2.12069C2.66503 2.04372 2.82741 2 3 2H6H13C13.5523 2 14 2.44772 14 3V6C14 6.55229 13.5523 7 13 7H7L7 13C7 13.5523 6.55228 14 6 14H3C2.44771 14 2 13.5523 2 13V6ZM13 8.5C13 8.22386 13.2239 8 13.5 8C13.7761 8 14 8.22386 14 8.5V9C14 9.65661 13.8707 10.3068 13.6194 10.9134C13.3681 11.52 12.9998 12.0712 12.5355 12.5355C12.0712 12.9998 11.52 13.3681 10.9134 13.6194C10.3947 13.8343 9.84404 13.96 9.28479 13.9919L9.85355 14.5606C10.0488 14.7559 10.0488 15.0725 9.85355 15.2678C9.65829 15.463 9.34171 15.463 9.14645 15.2678L7.73223 13.8535C7.63846 13.7598 7.58579 13.6326 7.58579 13.5C7.58579 13.3674 7.63846 13.2402 7.73223 13.1464L9.14645 11.7322C9.34171 11.537 9.65829 11.537 9.85355 11.7322C10.0488 11.9275 10.0488 12.2441 9.85355 12.4393L9.30318 12.9897C9.72481 12.9577 10.1394 12.8589 10.5312 12.6966C11.0166 12.4956 11.4577 12.2008 11.8293 11.8293C12.2008 11.4577 12.4956 11.0166 12.6966 10.5312C12.8977 10.0457 13.0012 9.52545 13.0012 9H13V8.5Z" fill="currentColor"/>
</svg>

<svg xmlns="http://www.w3.org/2000/svg" width="16" height="16" fill="none" viewBox="0 0 16 16">
  <path fill="currentColor" fill-rule="evenodd" d="M7 3h6v3H7V3ZM6 3H3v3h3V3Zm0 4H3v6h3V7ZM2 6V3a1.013 1.013 0 0 1 .134-.5A1.005 1.005 0 0 1 3 2h10a1 1 0 0 1 1 1v3a1 1 0 0 1-1 1H7v6a1 1 0 0 1-1 1H3a1 1 0 0 1-1-1V6Zm11 2.5a.5.5 0 0 1 1 0V9a5 5 0 0 1-4.715 4.992l.569.569a.5.5 0 0 1-.708.707l-1.414-1.415a.5.5 0 0 1 0-.707l1.414-1.414a.5.5 0 0 1 .708.707l-.55.55A4 4 0 0 0 13 9H13v-.5Z" clip-rule="evenodd"/>
</svg>
